Newaita-dark/.DP/22/mailspring-tray-empty.svg

<svg xmlns="http://www.w3.org/2000/svg" xmlns:xlink="http://www.w3.org/1999/xlink" width="22px" height="22px" viewBox="0 0 22 22" version="1.1">
<g id="surface1">
<path style=" stroke:none;fill-rule:nonzero;fill:rgb(93.333334%,93.333334%,93.333334%);fill-opacity:0.392;" d="M 10.914062 1.992188 C 7.621094 1.984375 4.578125 3.761719 2.972656 6.636719 L 10.914062 12.074219 L 18.859375 6.636719 C 17.25 3.761719 14.210938 1.984375 10.914062 1.992188 Z M 2.386719 7.902344 C 2.011719 8.921875 1.816406 10 1.820312 11.089844 C 1.8125 13.429688 2.710938 15.679688 4.328125 17.371094 L 7.199219 13.839844 C 7.441406 13.550781 7.867188 13.511719 8.15625 13.75 C 8.449219 13.984375 8.496094 14.410156 8.265625 14.703125 L 5.347656 18.292969 C 6.945312 19.523438 8.902344 20.1875 10.914062 20.183594 C 13.015625 20.183594 14.945312 19.476562 16.480469 18.292969 L 13.566406 14.703125 C 13.246094 14.703125 12.96875 14.484375 12.894531 14.175781 C 12.824219 13.863281 12.972656 13.542969 13.257812 13.402344 C 13.542969 13.257812 13.890625 13.332031 14.09375 13.578125 C 14.304688 13.578125 14.503906 13.671875 14.632812 13.839844 L 17.503906 17.371094 C 19.117188 15.679688 20.015625 13.429688 20.011719 11.089844 C 20.011719 9.964844 19.808594 8.894531 19.441406 7.902344 L 11.300781 13.472656 C 11.070312 13.632812 10.761719 13.632812 10.527344 13.472656 Z M 2.386719 7.902344 "/>
</g>
</svg>

<svg xmlns="http://www.w3.org/2000/svg" width="22pt" height="22pt" viewBox="0 0 22 22"><path d="M10.914 1.992a9.07 9.07 0 0 0-7.941 4.649l7.941 5.433 7.945-5.433a9.08 9.08 0 0 0-7.945-4.649zm-8.527 5.91a9.144 9.144 0 0 0-.567 3.184 9.07 9.07 0 0 0 2.508 6.285L7.2 13.836a.703.703 0 0 1 .516-.262.688.688 0 0 1 .55 1.13l-2.917 3.589a9.1 9.1 0 0 0 5.566 1.89 9.083 9.083 0 0 0 5.566-1.89l-2.914-3.59a.682.682 0 0 1-.093-.73.689.689 0 0 1 1.16-.137l2.87 3.535a9.07 9.07 0 0 0 2.509-6.285 9.147 9.147 0 0 0-.57-3.184l-8.137 5.57a.689.689 0 0 1-.778 0zm0 0" fill="#bdbdbd" fill-opacity=".392"/></svg>
